Sources/FrostedUI/Resources/Icons.xcassets/beakerFilled24.imageset/beaker-filled-24.svg

<svg width="24" height="24" viewBox="0 0 24 24" fill="none" xmlns="http://www.w3.org/2000/svg" data-fui-icon="true">
  <path
    d="M17.4995 0.999756C17.9137 0.999756 18.2494 1.33561 18.2495 1.74976C18.2495 2.16397 17.9137 2.49976 17.4995 2.49976H15.9995V9.35327C15.9996 9.61591 16.0831 9.87179 16.2368 10.0847L20.2339 15.6189L20.2524 15.6423H20.2515L22.4165 18.6394C23.7303 20.4579 22.4313 22.9995 20.188 22.9998H3.81201C1.56856 22.9996 0.26967 20.458 1.5835 18.6394L7.76318 10.0847C7.9169 9.87181 7.99945 9.61587 7.99951 9.35327V2.49976H6.49951C6.08548 2.49954 5.74951 2.16384 5.74951 1.74976C5.74959 1.33574 6.08553 0.999969 6.49951 0.999756H17.4995ZM8.67529 15.4294C7.72624 15.2593 6.6412 15.3544 5.26904 16.0984L2.79932 19.5173C2.20214 20.3439 2.79231 21.4996 3.81201 21.4998H20.188C21.2076 21.4995 21.7978 20.3439 21.2007 19.5173L19.0435 16.531C17.6268 17.4688 16.3589 17.8132 15.1597 17.7605C13.8259 17.7018 12.6761 17.1509 11.6616 16.6375C10.6059 16.1031 9.69711 15.6127 8.67529 15.4294Z"
    fill="currentColor"
  />
</svg>

<svg xmlns="http://www.w3.org/2000/svg" width="24" height="24" fill="none" data-fui-icon="true" viewBox="0 0 24 24"><path fill="currentColor" d="M17.5 1a.75.75 0 0 1 0 1.5H16v6.853c0 .263.083.519.237.732l3.997 5.534.018.023 2.165 2.997c1.313 1.819.014 4.36-2.229 4.36H3.812c-2.243 0-3.542-2.541-2.228-4.36l6.18-8.554A1.25 1.25 0 0 0 8 9.353V2.5H6.5a.75.75 0 0 1 0-1.5zM8.675 15.43c-.949-.17-2.034-.076-3.406.668l-2.47 3.42c-.597.826-.007 1.982 1.013 1.982h16.376c1.02 0 1.61-1.156 1.013-1.983l-2.157-2.986c-1.417.938-2.685 1.282-3.884 1.23-1.334-.06-2.484-.61-3.498-1.123-1.056-.535-1.965-1.025-2.987-1.209"/></svg>
